X:53
T:Cook In The Kitchen, The
R:jig
S:https://thesession.org/tunes/808
M:6/8
L:1/8
Z:b.maloney
K:Gmajor
|: E | DGG GFG | =FDE ~F3 | DGG GFG | A2 d cAG |
DGG GFG | =FDE F2 d | cAG FGA | BGG G2 :||
|: A | ~B3 BAG | ~A3 AGF | ~G3 GFG | A2 d cAG |
~B3 BAG | ~A3 A2 d | cAG FGA | BGG G2 :||
|: B | d2 e f2 g | a2 g fed | cAG FGA | B/c/dB cAG |
d2 e f2 g | a2 g fed | cAG FGA | BGG G2 :||

